packages/design-assets/icons/16px/Build.svg

<?xml version="1.0" encoding="UTF-8"?>
<svg width="16px" height="16px" viewBox="0 0 16 16" version="1.1" xmlns="http://www.w3.org/2000/svg" xmlns:xlink="http://www.w3.org/1999/xlink">
    <!-- Generator: Sketch 54.1 (76490) - https://sketchapp.com -->
    <title>Icons/16px/Build</title>
    <desc>Created with Sketch.</desc>
    <g id="Icons/16px/Build" stroke="none" stroke-width="1" fill="none" fill-rule="evenodd">
        <path d="M16,5 L6,5 L6,14.006 L9,14.006 L9,16 L0,16 L0,14.006 L3,14.006 L3,5 L0,5 L0,3 L3,2 L3,0 L6,0 L6,2 L16,3 L16,5 Z M14,9.006 L15,9.006 C15.5522847,9.006 16,9.45371525 16,10.006 L16,12 C16,12.5522847 15.5522847,13 15,13 L12,13 C11.4477153,13 11,12.5522847 11,12 L11,10.006 C11,9.45371525 11.4477153,9.006 12,9.006 L13,9.006 L13,6 L14,6 L14,9.006 Z" id="i-16-build" fill="#818F99"></path>
    </g>
</svg>

<svg width="16" height="16" xmlns="http://www.w3.org/2000/svg"><path d="M16 5H6v9.006h3V16H0v-1.994h3V5H0V3l3-1V0h3v2l10 1v2zm-2 4.006h1a1 1 0 0 1 1 1V12a1 1 0 0 1-1 1h-3a1 1 0 0 1-1-1v-1.994a1 1 0 0 1 1-1h1V6h1v3.006z" fill="#818F99" fill-rule="evenodd"/></svg>
